public/img/icon/general/fb.svg

<svg width="39" height="56" viewBox="0 0 39 56" fill="none" xmlns="http://www.w3.org/2000/svg">
<path d="M21.9253 45.3632V29.241H27.3376L28.1403 22.9573H21.9253V18.944C21.9253 17.1323 22.4299 15.8939 25.0443 15.8939H28.3696V10.2523C27.7963 10.1835 25.824 10 23.5306 10C18.7147 10 15.4352 12.9355 15.4352 18.3248V22.9573H10V29.241H15.4352V45.3632H21.9253Z" fill="#2963AD"/>
</svg>

<svg width="39" height="56" fill="none" xmlns="http://www.w3.org/2000/svg"><path d="M21.925 45.363V29.241h5.413l.802-6.284h-6.215v-4.013c0-1.812.505-3.05 3.12-3.05h3.325v-5.642A46.004 46.004 0 0 0 23.53 10c-4.815 0-8.095 2.935-8.095 8.325v4.632H10v6.284h5.435v16.122h6.49z" fill="#2963AD"/></svg>
